templates/main/source/images/buy02.svg

<?xml version="1.0" encoding="utf-8"?>
<svg width="32px" height="30px" viewBox="0 0 32 30" version="1.1" xmlns:xlink="http://www.w3.org/1999/xlink" xmlns="http://www.w3.org/2000/svg">
  <desc>Created with Lunacy</desc>
  <defs>
    <path d="M3 0L2 0L2 2L0 2L0 3L2 3L2 5L3 5L3 3L5 3L5 2L3 2L3 0Z" transform="translate(13 2)" id="path_1" />
  </defs>
  <g id="buy02">
    <g id="buy02">
      <path d="M2.999 0L29.001 0Q29.1483 0 29.295 0.014441Q29.4416 0.028882 29.5861 0.0576249Q29.7306 0.0863679 29.8716 0.129136Q30.0126 0.171904 30.1487 0.228285Q30.2848 0.284667 30.4147 0.354118Q30.5446 0.42357 30.6672 0.505423Q30.7897 0.587276 30.9035 0.680742Q31.0174 0.774208 31.1216 0.878387Q31.2258 0.982566 31.3193 1.09645Q31.4127 1.21034 31.4946 1.33284Q31.5764 1.45535 31.6459 1.58528Q31.7153 1.71522 31.7717 1.85133Q31.8281 1.98745 31.8709 2.12844Q31.9136 2.26942 31.9424 2.41392Q31.9711 2.55842 31.9856 2.70505Q32 2.85167 32 2.999L32 27.001Q32 27.1483 31.9856 27.295Q31.9711 27.4416 31.9424 27.5861Q31.9136 27.7306 31.8709 27.8716Q31.8281 28.0125 31.7717 28.1487Q31.7153 28.2848 31.6459 28.4147Q31.5764 28.5447 31.4946 28.6672Q31.4127 28.7897 31.3193 28.9035Q31.2258 29.0174 31.1216 29.1216Q31.0174 29.2258 30.9035 29.3193Q30.7897 29.4127 30.6672 29.4946Q30.5447 29.5764 30.4147 29.6459Q30.2848 29.7153 30.1487 29.7717Q30.0126 29.8281 29.8716 29.8709Q29.7306 29.9136 29.5861 29.9424Q29.4416 29.9711 29.295 29.9856Q29.1483 30 29.001 30L2.999 30Q2.85167 30 2.70505 29.9856Q2.55842 29.9711 2.41392 29.9424Q2.26942 29.9136 2.12844 29.8709Q1.98745 29.8281 1.85133 29.7717Q1.71522 29.7153 1.58528 29.6459Q1.45535 29.5764 1.33284 29.4946Q1.21034 29.4127 1.09645 29.3193Q0.982566 29.2258 0.878387 29.1216Q0.774208 29.0174 0.680742 28.9035Q0.587276 28.7897 0.505423 28.6672Q0.42357 28.5447 0.354118 28.4147Q0.284667 28.2848 0.228285 28.1487Q0.171904 28.0125 0.129136 27.8716Q0.0863679 27.7306 0.0576249 27.5861Q0.028882 27.4416 0.014441 27.295Q0 27.1483 0 27.001L0 2.999Q0 2.85167 0.014441 2.70505Q0.028882 2.55842 0.0576249 2.41392Q0.0863679 2.26942 0.129136 2.12844Q0.171904 1.98745 0.228285 1.85133Q0.284667 1.71522 0.354118 1.58528Q0.42357 1.45535 0.505423 1.33284Q0.587276 1.21034 0.680742 1.09645Q0.774208 0.982566 0.878387 0.878387Q0.982566 0.774208 1.09645 0.680742Q1.21034 0.587276 1.33284 0.505423Q1.45535 0.42357 1.58528 0.354118Q1.71522 0.284667 1.85133 0.228285Q1.98745 0.171904 2.12844 0.129136Q2.26942 0.0863679 2.41392 0.0576249Q2.55842 0.028882 2.70505 0.014441Q2.85167 0 2.999 0Z" id="Rectangle" fill="#8C0014" stroke="none" />
      <g id="Group" transform="translate(7 6)">
        <g id="shopping-cart">
          <path d="M3.59374 0L0 0L0 1.5L2.4138 1.5L4.4904 11.0082L4.5 11.0082L4.5 11.25L14.25 11.25L14.25 11.0639L15.8949 3.81821L16.1481 3L4.2414 3L3.81364 1.04139L3.59374 0ZM14.2402 4.5L4.569 4.5L5.71561 9.75L13.0484 9.75L14.2402 4.5ZM6.75 15C7.57845 15 8.25 14.3285 8.25 13.5C8.25 12.6715 7.57845 12 6.75 12C5.92157 12 5.25 12.6715 5.25 13.5C5.25 14.3285 5.92157 15 6.75 15ZM12 15C12.8285 15 13.5 14.3285 13.5 13.5C13.5 12.6715 12.8285 12 12 12C11.1715 12 10.5 12.6715 10.5 13.5C10.5 14.3285 11.1715 15 12 15Z" transform="translate(0.75 1.5)" id="Combined-Shape" fill="#FFFFFF" fill-rule="evenodd" stroke="none" />
        </g>
        <g id="Combined-Shape">
          <use xlink:href="#path_1" fill="none" stroke="#8C0014" stroke-width="2" />
          <use stroke="none" fill="#FFFFFF" xlink:href="#path_1" fill-rule="evenodd" />
        </g>
      </g>
    </g>
  </g>
</svg>

<svg width="32" height="30" viewBox="0 0 32 30" xmlns:xlink="http://www.w3.org/1999/xlink" xmlns="http://www.w3.org/2000/svg"><defs><path d="M3 0H2v2H0v1h2v2h1V3h2V2H3V0z" transform="translate(13 2)" id="path_1"/></defs><g id="buy02"><g id="buy02"><path d="M2.999 0h26.002q.147 0 .294.014.147.015.291.044.145.028.286.071.14.043.277.1.136.056.266.125.13.07.252.151.123.082.236.176.114.093.219.197.104.105.197.218.094.114.176.237.081.122.15.252.07.13.127.266.056.136.099.277.043.141.071.286.03.144.044.291.014.147.014.294v24.002q0 .147-.014.294-.015.147-.044.291-.028.145-.071.286-.043.14-.1.277-.056.136-.125.266-.07.13-.151.252-.082.123-.176.236-.093.114-.197.219-.105.104-.218.197-.114.094-.237.176-.122.081-.252.15-.13.07-.266.127-.136.056-.277.099-.141.043-.286.071-.144.03-.291.044-.147.014-.294.014H2.999q-.147 0-.294-.014-.147-.015-.291-.044-.145-.028-.286-.071-.14-.043-.277-.1-.136-.056-.266-.125-.13-.07-.252-.151-.123-.082-.237-.176-.113-.093-.218-.197-.104-.105-.197-.218-.094-.114-.176-.237-.081-.122-.15-.252-.07-.13-.127-.266-.056-.137-.099-.277-.043-.141-.071-.286-.03-.144-.044-.291Q0 27.148 0 27.001V2.999q0-.147.014-.294.015-.147.044-.291.028-.145.071-.286.043-.14.1-.277.056-.136.125-.266.07-.13.151-.252.082-.123.176-.237Q.774.983.878.878q.105-.104.218-.197.114-.094.237-.176.122-.081.252-.15.13-.07.266-.127.136-.056.277-.099.141-.043.286-.071.144-.03.291-.044Q2.852 0 2.999 0z" id="Rectangle" fill="#8C0014" stroke="none"/><g id="Group" transform="translate(7 6)"><g id="shopping-cart"><path d="M3.594 0H0v1.5h2.414l2.076 9.508h.01v.242h9.75v-.186l1.645-7.246.253-.818H4.241l-.427-1.959L3.594 0zM14.24 4.5H4.57l1.147 5.25h7.332L14.24 4.5zM6.75 15a1.5 1.5 0 100-3 1.5 1.5 0 000 3zM12 15a1.5 1.5 0 100-3 1.5 1.5 0 000 3z" transform="translate(.75 1.5)" id="Combined-Shape" fill="#FFF" fill-rule="evenodd" stroke="none"/></g><g id="Combined-Shape"><use xlink:href="#path_1" fill="none" stroke="#8C0014" stroke-width="2"/><use fill="#FFF" xlink:href="#path_1" fill-rule="evenodd"/></g></g></g></g></svg>
